X: 1611
T: Joe Yates Hilo Reel
B: australian traditional tunes wiki
M:C
L:1/8
R: Reel
Q: 1/4=100
K:G
V:1 
"G"d2de dc BA|B2G2GF GB|"D7"A2E2F2DE|"G"GF GA GA Bc|
"G"d2de dc BA|B2G2GF GB|"D7"A2E2 FD EF|"G"G6Bc||
"G"d2g2B2g2|"D7"f2AB cB AB|c2a2A2a2|"G"g2Bc dc Bc|
"G"d2g2B2g2|"D7"f2AB cB AB|c2a2c2a2|"G"gf gag4||
% abcbook-tune_id 6342d53a6c7608cc9ca9b467


% abcbook-boost 0
% abcbook-tablature 
% abcbook-transpose 
% abcbook-lastupdated 1665324373898
% abcbook-soundfonts 
% abcbook-repeats 1
% NFF Book 2007

